file/pbs.svg

<svg clip-rule="evenodd" fill-rule="evenodd" stroke-linejoin="round" stroke-miterlimit="1.41421" viewBox="0 0 560 400" xmlns="http://www.w3.org/2000/svg"><g fill-rule="nonzero" transform="matrix(.89955 0 0 .89955 100 99.97)"><path d="m113 44.5h-7.7v-9.6h25.7c13.9 0 21.8 7.1 21.8 18.3 0 11.4-8.3 18.5-21.4 18.5h-6.9v14.4h9v9.6h-28.2v-9.6h7.9v-41.6zm11.4 17.6h7.5c6.4 0 9.8-4 9.8-8.9 0-5-3.7-8.9-9.8-8.9h-7.5zm39.3-17.6h-6.9v-9.6h24.5c15.2 0 20 9 20 15.8 0 5.6-3.1 10.2-7.3 12.3 6.2 2.5 9.6 8.9 9.6 14.4 0 13.3-10.4 18.7-20.4 18.7h-27.2v-9.6h7.9v-42zm11.2 41.9h7.1c5.8 0 9.8-3.3 9.8-8.7 0-4.6-3.1-8.7-9.8-8.7h-7.1zm0-27h6.8c5 0 8.5-2.9 8.5-7.5 0-4.4-3.3-7.3-8.5-7.3h-6.8zm64.6-15.1c-1.9-.8-4.6-1.6-7.3-1.6-7.5 0-9.8 4.2-9.8 7.7 0 4.4 2.9 5.8 6.4 6.8l6.6 1.7c7.9 2.3 16.8 5.2 16.8 17.7 0 11.6-6.9 19.8-22.4 19.8-6 0-12.2-.8-19.3-3.3v-16h11.2v8c2.9 1.4 6 1.6 9 1.6 6.6 0 9.6-3.5 9.6-8.1 0-3.1-1.6-5.4-8.9-7.5l-6-1.7c-11.2-3.3-14.8-8.1-14.8-17.4 0-9.6 6-18.1 21.2-18.1 6.6 0 13.1 1.2 17.7 3.3v14.4h-10.2v-7.3z" transform="translate(148 46)"/><path d="m222.5 111.2c0 61.4-49.8 111.2-111.2 111.2s-111.3-49.7-111.3-111.2 49.8-111.2 111.2-111.2 111.3 49.8 111.3 111.2"/><g fill="#fff"><path d="m111.8 102.2c-6.1 0-11-4.9-11-11s4.9-11 11-11 11 5 11 11c0 6.1-4.9 11-11 11zm8.9-52.3h-33.7c-27.6 0-49.6 18.5-49.6 47.1 0 24.1 16.4 40.4 36.9 43.7v32.4h46.2v-27.4h3.5c7.3 0 13.6-9.2 13.6-16v-18.2h11z"/><path d="m158.4 49.9h-18.2l27.6 61.6h-11.4v16.3c0 10.1-6.8 14.4-17.1 14.2v31.1h17.1v-27.4h4.8c5.2 0 10.6-7.8 10.6-16v-18.2h14.1z"/></g></g></svg>

<?xml version="1.0" encoding="UTF-8" standalone="no"?>
<!DOCTYPE svg PUBLIC "-//W3C//DTD SVG 1.1//EN" "http://www.w3.org/Graphics/SVG/1.1/DTD/svg11.dtd">
<svg width="100%" height="100%" viewBox="0 0 560 400" version="1.1" xmlns="http://www.w3.org/2000/svg" xmlns:xlink="http://www.w3.org/1999/xlink" xml:space="preserve" xmlns:serif="http://www.serif.com/" style="fill-rule:evenodd;clip-rule:evenodd;stroke-linejoin:round;stroke-miterlimit:1.41421;">
    <g transform="matrix(0.89955,0,0,0.89955,100,99.97)">
        <g transform="matrix(1,0,0,1,148,46)">
            <path d="M113,44.5L105.3,44.5L105.3,34.9L131,34.9C144.9,34.9 152.8,42 152.8,53.2C152.8,64.6 144.5,71.7 131.4,71.7L124.5,71.7L124.5,86.1L133.5,86.1L133.5,95.7L105.3,95.7L105.3,86.1L113.2,86.1L113.2,44.5L113,44.5ZM124.4,62.1L131.9,62.1C138.3,62.1 141.7,58.1 141.7,53.2C141.7,48.2 138,44.3 131.9,44.3L124.4,44.3L124.4,62.1ZM163.7,44.5L156.8,44.5L156.8,34.9L181.3,34.9C196.5,34.9 201.3,43.9 201.3,50.7C201.3,56.3 198.2,60.9 194,63C200.2,65.5 203.6,71.9 203.6,77.4C203.6,90.7 193.2,96.1 183.2,96.1L156,96.1L156,86.5L163.9,86.5L163.9,44.5L163.7,44.5ZM174.9,86.4L182,86.4C187.8,86.4 191.8,83.1 191.8,77.7C191.8,73.1 188.7,69 182,69L174.9,69L174.9,86.4ZM174.9,59.4L181.7,59.4C186.7,59.4 190.2,56.5 190.2,51.9C190.2,47.5 186.9,44.6 181.7,44.6L174.9,44.6L174.9,59.4ZM239.5,44.3C237.6,43.5 234.9,42.7 232.2,42.7C224.7,42.7 222.4,46.9 222.4,50.4C222.4,54.8 225.3,56.2 228.8,57.2L235.4,58.9C243.3,61.2 252.2,64.1 252.2,76.6C252.2,88.2 245.3,96.4 229.8,96.4C223.8,96.4 217.6,95.6 210.5,93.1L210.5,77.1L221.7,77.1L221.7,85.1C224.6,86.5 227.7,86.7 230.7,86.7C237.3,86.7 240.3,83.2 240.3,78.6C240.3,75.5 238.7,73.2 231.4,71.1L225.4,69.4C214.2,66.1 210.6,61.3 210.6,52C210.6,42.4 216.6,33.9 231.8,33.9C238.4,33.9 244.9,35.1 249.5,37.2L249.5,51.6L239.3,51.6L239.3,44.3L239.5,44.3Z" style="fill-rule:nonzero;"/>
        </g>
        <path d="M222.5,111.2C222.5,172.6 172.7,222.4 111.3,222.4C49.9,222.4 0,172.7 0,111.2C0,49.7 49.8,0 111.2,0C172.6,0 222.5,49.8 222.5,111.2" style="fill-rule:nonzero;"/>
        <path d="M111.8,102.2C105.7,102.2 100.8,97.3 100.8,91.2C100.8,85.1 105.7,80.2 111.8,80.2C117.9,80.2 122.8,85.2 122.8,91.2C122.8,97.3 117.9,102.2 111.8,102.2ZM120.7,49.9L87,49.9C59.4,49.9 37.4,68.4 37.4,97C37.4,121.1 53.8,137.4 74.3,140.7L74.3,173.1L120.5,173.1L120.5,145.7L124,145.7C131.3,145.7 137.6,136.5 137.6,129.7L137.6,111.5L148.6,111.5L120.7,49.9Z" style="fill:white;fill-rule:nonzero;"/>
        <path d="M158.4,49.9L140.2,49.9L167.8,111.5L156.4,111.5L156.4,127.8C156.4,137.9 149.6,142.2 139.3,142L139.3,173.1L156.4,173.1L156.4,145.7L161.2,145.7C166.4,145.7 171.8,137.9 171.8,129.7L171.8,111.5L185.9,111.5L158.4,49.9Z" style="fill:white;fill-rule:nonzero;"/>
    </g>
</svg>
